dist/img/house-chimney-medical-solid.svg

<svg fill="#fff" xmlns="http://www.w3.org/2000/svg" viewBox="0 0 576 512"><!--! Font Awesome Pro 6.1.2 by @fontawesome - https://fontawesome.com License - https://fontawesome.com/license (Commercial License) Copyright 2022 Fonticons, Inc.--><path d="M511.8 287.6l.7 160.1c.1 35.5-28.6 64.3-64 64.3H128.1c-35.35 0-64.01-28.7-64.01-64V287.6H32.05C14.02 287.6 0 273.5 0 255.5c0-9 3.004-17 10.01-24L266.4 8.016c7-7.014 15-8.016 22-8.016s15 2.004 21.1 7.014L416 100.7V64c0-17.67 14.3-32 32-32h32c17.7 0 32 14.33 32 32v121l52.8 46.5c8 7 12.1 15 11 24 0 18-15 32.1-32 32.1h-32zM400 248c0-8.8-7.2-16-16-16h-56v-56c0-8.8-7.2-16-16-16h-48c-8.8 0-16 7.2-16 16v56h-56c-8.8 0-16 7.2-16 16v48c0 8.8 7.2 16 16 16h56v56c0 8.8 7.2 16 16 16h48c8.8 0 16-7.2 16-16v-56h56c8.8 0 16-7.2 16-16v-48z"/></svg>

<svg fill="#fff" xmlns="http://www.w3.org/2000/svg" viewBox="0 0 576 512"><!--! Font Awesome Pro 6.1.2 by @fontawesome - https://fontawesome.com License - https://fontawesome.com/license (Commercial License) Copyright 2022 Fonticons, Inc. --><path d="M511.8 287.6L512.5 447.7C512.6 483.2 483.9 512 448.5 512H128.1C92.75 512 64.09 483.3 64.09 448V287.6H32.05C14.02 287.6 0 273.5 0 255.5C0 246.5 3.004 238.5 10.01 231.5L266.4 8.016C273.4 1.002 281.4 0 288.4 0C295.4 0 303.4 2.004 309.5 7.014L416 100.7V64C416 46.33 430.3 32 448 32H480C497.7 32 512 46.33 512 64V185L564.8 231.5C572.8 238.5 576.9 246.5 575.8 255.5C575.8 273.5 560.8 287.6 543.8 287.6L511.8 287.6zM400 248C400 239.2 392.8 232 384 232H328V176C328 167.2 320.8 160 312 160H264C255.2 160 248 167.2 248 176V232H192C183.2 232 176 239.2 176 248V296C176 304.8 183.2 312 192 312H248V368C248 376.8 255.2 384 264 384H312C320.8 384 328 376.8 328 368V312H384C392.8 312 400 304.8 400 296V248z"/></svg>
